boxicons/svg/solid/bxs-arrow-to-left.svg

<svg xmlns="http://www.w3.org/2000/svg" width="24" height="24" viewBox="0 0 24 24"><path d="M4 6h2v12H4zm10 7h6v-2h-6V6l-6 6 6 6z"/></svg>

<svg xmlns="http://www.w3.org/2000/svg" width="24" height="24" viewBox="0 0 24 24"><path d="M4 6H6V18H4zM14 13L20 13 20 11 14 11 14 6 8 12 14 18z"/></svg>
